Papirus/22x22/panel/teamviewer-indicator-connected.svg

<?xml version="1.0" encoding="UTF-8" standalone="no"?>
<svg xmlns:dc="http://purl.org/dc/elements/1.1/" xmlns:cc="http://creativecommons.org/ns#" xmlns:rdf="http://www.w3.org/1999/02/22-rdf-syntax-ns#" xmlns:svg="http://www.w3.org/2000/svg" xmlns="http://www.w3.org/2000/svg" version="1.1" id="svg2" height="22" viewBox="0 0 6.208889 6.208889" width="22">
    <metadata id="metadata16">
        <rdf:RDF>
            <cc:Work rdf:about="">
                <dc:format>
                    image/svg+xml
                </dc:format>
                <dc:type rdf:resource="http://purl.org/dc/dcmitype/StillImage"/>
                <dc:title/>
            </cc:Work>
        </rdf:RDF>
    </metadata>
    <g transform="matrix(-1,0,0,1,5.9266668,0)" id="g4155">
        <path id="path4144" transform="matrix(0.28222222,0,0,0.28222222,-0.28222208,0)" d="m 12,3 a 7.9999994,7.9999994 0 0 0 -8,8 7.9999994,7.9999994 0 0 0 1.3359375,4.417969 l 1.3359375,1.335937 2.8222656,-2.822265 2.8320314,2.822265 -2.050781,2.050782 A 7.9999994,7.9999994 0 0 0 12,19 7.9999994,7.9999994 0 0 0 20,11 7.9999994,7.9999994 0 0 0 12,3 Z m -2,5 0,1.9980469 4,0 L 14,8 l 3,3 -3,3 0,-1.998047 -4,0 L 10,14 7,11 10,8 Z M 2.4140625,13.910156 1,15.324219 5.2558594,19.580078 5.25,19.585938 6.6660156,21 10.908203,16.757812 9.4941406,15.34375 6.6699219,18.166016 2.4140625,13.910156 Z" style="opacity:1000002;fill:#ffffff;fill-opacity:1;stroke:none;stroke-width:2;stroke-linecap:round;stroke-linejoin:round;stroke-miterlimit:4;stroke-dasharray:none;stroke-opacity:1"/>
    </g>
    <g transform="matrix(0.28222222,0,0,0.28222222,-4.0521466,-2.3834898)" id="g4146" style="fill:none;fill-opacity:1">
        <path d="m 30.565,21.238 1.414,1.414 -1.793,1.793 5.172,0 0,2 -5.172,0 1.793,1.793 -1.414,1.414 -4.207,-4.207 z" style="opacity:1;fill:none;fill-opacity:1;fill-rule:nonzero;stroke:none" id="path4148"/>
    </g>
</svg>

<?xml version="1.0" encoding="UTF-8" standalone="no"?>
<svg id="svg2" xmlns:rdf="http://www.w3.org/1999/02/22-rdf-syntax-ns#" xmlns="http://www.w3.org/2000/svg" height="22" viewBox="0 0 6.208889 6.208889" width="22" version="1.1" xmlns:cc="http://creativecommons.org/ns#" xmlns:dc="http://purl.org/dc/elements/1.1/">
 <metadata id="metadata16">
  <rdf:RDF>
   <cc:Work rdf:about="">
    <dc:format>image/svg+xml</dc:format>
    <dc:type rdf:resource="http://purl.org/dc/dcmitype/StillImage"/>
    <dc:title/>
   </cc:Work>
  </rdf:RDF>
 </metadata>
 <g id="g4155" transform="matrix(-1 0 0 1 5.9267 0)">
  <path id="path4144" opacity="1e6" d="m12 3a8 8 0 0 0 -8 8 8 8 0 0 0 1.3359 4.418l1.3359 1.3359 2.8223-2.8223 2.832 2.8223-2.0508 2.0508a8 8 0 0 0 1.725 0.195 8 8 0 0 0 8 -8 8 8 0 0 0 -8 -8zm-2 5v1.998h4v-1.998l3 3-3 3v-1.998h-4v1.998l-3-3 3-3zm-7.5859 5.91-1.4141 1.414 4.2559 4.256-0.0059 0.006 1.416 1.414 4.242-4.242-1.4139-1.414-2.8242 2.822-4.2558-4.256z" transform="matrix(.28222 0 0 .28222 -.28222 0)" fill="#fff"/>
 </g>
 <g id="g4146" fill="none" transform="matrix(.28222 0 0 .28222 -4.0521 -2.3835)">
  <path id="path4148" fill="none" d="m30.565 21.238 1.414 1.414-1.793 1.793h5.172v2h-5.172l1.793 1.793-1.414 1.414-4.207-4.207z"/>
 </g>
</svg>
